X: 090200
T: I Wish I Never Saw You
S: M. Bergin
Z: B.Black
R: reel
M: 4/4
L: 1/8
K: G
d |: edBA G3 A | B2 Ac BE E2 | GFGE DEGA | BGdB A3 d |
edBA G3 A | B2 Ac BE E2 | GFGE DEGA | dBAc BG G2 :|
dedc BGBd | e2 af gfge | dedc BGBd | egfa g3 g |
dedc BGBd | e2 af gfge | d2 df e2 eg | fgaf g4 :|
